X: 20261
M: 2/4
L: 1/16
K: G
d2g2 |\
f2d2 e2e2 | d4 c2e2 | B2d2 A2c2 | B2G2 d2g2 |\
f2d2 e2e2 | d4 (cd).e.c | B2d2 c2A2 | G4 H|]
|: B2e2 |\
e^dcB efga | f2B2 b2(bg) | a2(af) g2(ge) | B4 b2b2 |\
d2g2 |\
f2d2 e2e2 | d4 c2e2 | B2d2 A2c2 | B2G2 d2g2 |\
f2d2 e2e2 | d4 (cd).e.c | B2d2 c2A2 | "_D.C."G4 |]


